X: 21512
T: the Sun beam
%R: jig
B: James Oswald "The Caledonian Pocket Companion" v.2 p.151 #2
Z: 2018 John Chambers <jc:trillian.mit.edu>
M: 6/8
L: 1/8
K: A
"_Brisk"a |\
ecA A2a | Bce Tf2e | (f/g/)af ece | (f/g/)ac B2a |\
ecA ABA | Bce Tf2e | f/g/af ecA | BcB A2 :|
|: e |\
(f/g/)ae Tf2e | (f/g/)af ece | (f/g/)ae Tf2e | (f/g/)ac B2e |\
(f/g/)ae Tf2e | (f/g/)af ece | f2a ecA | BcB A2 :|
